web/packages/design/src/ResourceIcon/assets/ringlead.svg

<svg width="72" height="72" viewBox="0 0 72 72" fill="none" xmlns="http://www.w3.org/2000/svg">
<g clip-path="url(#clip0_16965_14305)">
<path fill-rule="evenodd" clip-rule="evenodd" d="M53.8966 30.6379L55.7617 40.8331L39.6409 39.9967C39.6409 39.9967 12.5137 25.1221 31.3317 2.51123C29.3788 15.8929 44.5628 22.8263 53.8966 30.6379Z" fill="#00C5EF"/>
<path fill-rule="evenodd" clip-rule="evenodd" d="M27.7057 44.9934C23.5615 46.7205 14.7171 57.8398 18.6856 70.5023C10.2886 58.9062 1.281 45.4701 6.16532 22.4829C6.50823 32.3854 14.1651 41.4013 27.7057 44.9934Z" fill="#740092"/>
<mask id="mask0_16965_14305" style="mask-type:luminance" maskUnits="userSpaceOnUse" x="4" y="22" width="16" height="49">
<path d="M19.7016 22.4829H4.78516V70.5232H19.7016V22.4829Z" fill="white"/>
</mask>
<g mask="url(#mask0_16965_14305)">
<path fill-rule="evenodd" clip-rule="evenodd" d="M19.7059 54.6199C17.4449 59.6165 17.0822 65.2659 18.6856 70.5106C10.2886 58.9062 1.281 45.4701 6.16532 22.4829C4.50516 32.3017 9.80347 46.8125 19.7059 54.6199Z" fill="#B31696"/>
</g>
<path fill-rule="evenodd" clip-rule="evenodd" d="M61.9798 38.0561C70.4772 49.2591 69.0888 67.2826 54.4317 71.4267L53.9466 71.5564C42.5764 74.3791 39.2017 62.5446 43.2036 57.1836C45.2736 54.4069 51.4292 52.8429 55.243 56.962C57.3339 52.8596 53.9174 49.3971 48.251 46.5075C46.9547 42.7063 44.2784 39.8585 34.8694 39.5114C25.4603 39.1643 1.97966 31.336 9.4065 0.00195312C20.8729 22.801 49.3258 21.3876 61.9798 38.0561Z" fill="#0072BF"/>
<mask id="mask1_16965_14305" style="mask-type:luminance" maskUnits="userSpaceOnUse" x="7" y="0" width="52" height="57">
<path d="M58.3075 0.00195312H7.97559V56.9745H58.3075V0.00195312Z" fill="white"/>
</mask>
<g mask="url(#mask1_16965_14305)">
<path fill-rule="evenodd" clip-rule="evenodd" d="M20.2582 23.5663C31.181 32.6742 45.6542 30.8844 54.5488 40.7701C58.5466 45.207 60.1984 52.0944 55.243 56.9745C57.3339 52.8722 53.9174 49.4097 48.251 46.5201C46.9547 42.7188 44.2784 39.871 34.8694 39.5239C25.4603 39.1769 1.97966 31.336 9.4065 0.00195312C10.2219 11.3471 14.0859 18.4227 20.2582 23.5663Z" fill="#2D1463"/>
</g>
<mask id="mask2_16965_14305" style="mask-type:luminance" maskUnits="userSpaceOnUse" x="24" y="12" width="30" height="19">
<path d="M53.8964 12.9321H24.833V30.6378H53.8964V12.9321Z" fill="white"/>
</mask>
<g mask="url(#mask2_16965_14305)">
<path fill-rule="evenodd" clip-rule="evenodd" d="M44.4581 23.5873C47.7157 25.9918 51.0737 28.2751 53.8964 30.6378C45.3488 24.8837 34.3006 21.7473 24.833 16.0016C24.9652 14.9632 25.1791 13.9368 25.4728 12.9321C31.5489 17.0177 38.2398 20.1499 44.4581 23.5873Z" fill="#00A9E5"/>
</g>
<g style="mix-blend-mode:lighten" opacity="0.36">
<path fill-rule="evenodd" clip-rule="evenodd" d="M53.8962 30.6419C56.9835 32.6476 59.7153 35.1533 61.9796 38.0562C68.867 47.1391 69.2559 60.7131 61.3398 67.7469C59.3455 69.4846 56.9837 70.7484 54.4315 71.4435L53.9464 71.5732C42.5761 74.3959 39.2014 62.5614 43.2034 57.2004C45.2734 54.4237 51.4289 52.8597 55.2427 56.9788C57.3336 52.8764 53.9171 49.4139 48.2508 46.5243C47.2053 43.4633 45.2692 41.0211 39.6405 40.0049C39.6405 40.0049 22.9719 30.851 24.837 15.9932C34.3004 21.7473 45.3486 24.8878 53.8962 30.6419Z" fill="#00C5EF"/>
</g>
<path fill-rule="evenodd" clip-rule="evenodd" d="M18.2174 59.747C17.5066 63.3313 17.7065 67.0365 18.7986 70.5235C13.655 63.4145 8.28145 55.6029 6.01074 45.3408C10.7947 58.1287 18.1964 59.7429 18.2174 59.747Z" fill="#F10091"/>
</g>
<defs>
<clipPath id="clip0_16965_14305">
<rect width="72" height="72" fill="white" transform="translate(0 0.00195312)"/>
</clipPath>
</defs>
</svg>

<svg xmlns="http://www.w3.org/2000/svg" width="72" height="72" fill="none" viewBox="0 0 72 72"><g clip-path="url(#a)"><path fill="#00c5ef" fill-rule="evenodd" d="m53.897 30.638 1.865 10.195-16.121-.836S12.514 25.122 31.33 2.51c-1.95 13.383 13.234 20.316 22.568 28.128" clip-rule="evenodd"/><path fill="#740092" fill-rule="evenodd" d="M27.706 44.993c-4.145 1.727-12.989 12.847-9.02 25.51C10.289 58.905 1.28 45.47 6.166 22.482c.342 9.902 8 18.918 21.54 22.51" clip-rule="evenodd"/><mask id="b" width="16" height="49" x="4" y="22" maskUnits="userSpaceOnUse" style="mask-type:luminance"><path fill="#fff" d="M19.702 22.483H4.785v48.04h14.917z"/></mask><g mask="url(#b)"><path fill="#b31696" fill-rule="evenodd" d="M19.706 54.62a22.55 22.55 0 0 0-1.02 15.89C10.289 58.907 1.28 45.47 6.166 22.484c-1.66 9.819 3.637 24.33 13.54 32.137" clip-rule="evenodd"/></g><path fill="#0072bf" fill-rule="evenodd" d="M61.98 38.056c8.497 11.203 7.109 29.227-7.548 33.37l-.485.13c-11.37 2.823-14.745-9.011-10.743-14.372 2.07-2.777 8.225-4.341 12.039-.222 2.09-4.102-1.326-7.565-6.992-10.455-1.296-3.8-3.973-6.648-13.382-6.996C25.46 39.164 1.98 31.336 9.407.002 20.873 22.801 49.326 21.388 61.98 38.056" clip-rule="evenodd"/><mask id="c" width="52" height="57" x="7" y="0" maskUnits="userSpaceOnUse" style="mask-type:luminance"><path fill="#fff" d="M58.308.002H7.975v56.973h50.332z"/></mask><g mask="url(#c)"><path fill="#2d1463" fill-rule="evenodd" d="M20.258 23.566c10.923 9.108 25.396 7.318 34.29 17.204 3.999 4.437 5.65 11.324.695 16.204 2.09-4.102-1.326-7.564-6.992-10.454-1.296-3.801-3.973-6.649-13.382-6.996S1.98 31.336 9.407.002c.815 11.345 4.679 18.42 10.851 23.564" clip-rule="evenodd"/></g><mask id="d" width="30" height="19" x="24" y="12" maskUnits="userSpaceOnUse" style="mask-type:luminance"><path fill="#fff" d="M53.896 12.932H24.833v17.706h29.063z"/></mask><g mask="url(#d)"><path fill="#00a9e5" fill-rule="evenodd" d="M44.458 23.587c3.258 2.405 6.616 4.688 9.438 7.05-8.547-5.753-19.595-8.89-29.063-14.635q.198-1.56.64-3.07c6.076 4.086 12.767 7.218 18.985 10.655" clip-rule="evenodd"/></g><path fill="#00c5ef" fill-rule="evenodd" d="M53.896 30.642a33.2 33.2 0 0 1 8.084 7.414c6.887 9.083 7.276 22.657-.64 29.69a17.5 17.5 0 0 1-6.909 3.698l-.485.13C42.576 74.395 39.201 62.56 43.203 57.2c2.07-2.776 8.226-4.34 12.04-.221 2.09-4.103-1.326-7.565-6.992-10.455-1.046-3.06-2.982-5.503-8.61-6.52 0 0-16.67-9.153-14.804-24.01 9.463 5.753 20.512 8.894 29.06 14.648" clip-rule="evenodd" opacity=".36" style="mix-blend-mode:lighten"/><path fill="#f10091" fill-rule="evenodd" d="M18.217 59.747a21.85 21.85 0 0 0 .582 10.776C13.655 63.416 8.28 55.604 6.01 45.342c4.784 12.788 12.185 14.402 12.206 14.406" clip-rule="evenodd"/></g><defs><clipPath id="a"><path fill="#fff" d="M0 .002h72v72H0z"/></clipPath></defs></svg>
